app/dist/common/images/fat-brands.svg

<svg height="18" viewBox="0 0 18 18" width="18" xmlns="http://www.w3.org/2000/svg"><path d="m0 0h18v18h-18z" fill="#f0f3fa"/><path d="m4 6.58 10-2.2v-.38h-10zm7.37-.96v1.09l.76-.16v2.53l1.11-.26.02-2.54.74-.16v-1.1zm-3.2.73-1.03 3.85 1.19-.27.1-.44.84-.2.1.4 1.2-.27-1.03-3.39-1.37.3zm.9 2.08-.44.1.22-1.1.23 1zm-5.07-1.13v3.3l1.12.07v-1.04l.77-.19v-1.03l-.77.17v-.45l1.12-.26v-1.07l-2.24.49zm0 4.17v.53h10v-2.76zm0 2.53h10v-1h-10z"/></svg>

<!-- by TradingView --><svg xmlns="http://www.w3.org/2000/svg" width="18" height="18" viewBox="0 0 18 18"><path fill="#F0F3FA" d="M0 0h18v18H0z"/><path d="m4 6.58 10-2.2V4H4v2.58ZM11.37 5.62v1.09l.76-.16v2.53l1.11-.26.02-2.54.74-.16v-1.1l-2.63.6ZM8.17 6.35 7.14 10.2l1.19-.27.1-.44.84-.2.1.4 1.2-.27-1.03-3.39-1.37.3Zm.9 2.08-.44.1.22-1.1.23 1ZM4 7.3v3.3l1.12.07V9.63l.77-.19V8.41l-.77.17v-.45l1.12-.26V6.8L4 7.29ZM4 11.47V12h10V9.24L4 11.47ZM4 14h10v-1H4v1Z"/></svg>
